X:120
T: Tinker's Stick
S: "Treoir" 32/2
Z: B.Black
M: 4/4
L: 1/8
R: reel
K: G
B2 BG A2 GE | DGBG AGED | BcBA G2 GB | dBAc BGGA |
BcBG ABGE | DGBG AGED | B2 BA G2 GB | dBAc BG G2 ||
dggf g2 ag | egdg eg d2 | dggf gabg | egab ageg |
dggf g2 ag | egdg eg d2 | gedB ABcd | eaaf gedc ||
